svgs/light/user-pilot.svg

<svg xmlns="http://www.w3.org/2000/svg" viewBox="0 0 448 512"><!--! Font Awesome Pro 6.0.0-alpha3 by @fontawesome - https://fontawesome.com License - https://fontawesome.com/license (Commercial License) --><path d="M168.8 94.31l48 23.1C219.1 119.4 221.6 120 224 120s4.906-.5625 7.156-1.688l48-23.1c7.906-3.969 11.09-13.56 7.156-21.47c-3.969-7.904-13.53-11.12-21.47-7.156L224 86.13L183.2 65.69c-7.906-3.936-17.5-.7173-21.47 7.156C157.8 80.75 160.9 90.35 168.8 94.31zM77.33 102.4v22.46c0 13.04 7.713 25.22 19.96 29.7C134.3 168.1 177.6 176 224 176s89.73-7.877 126.7-21.42c12.24-4.482 19.96-16.66 19.96-29.7V102.4l22.14-22.3C397.4 75.48 400 69.2 400 62.64c0-11.35-7.664-21.23-18.59-23.98C235.7 1.979 229.2 0 225.5 0C225 0 224.6 .0293 224 .0293c-.5938 0-1.002-.0273-1.443-.0273c-3.787 0-10.05 1.922-155.1 38.66C55.66 41.41 48 51.29 48 62.64c0 6.555 2.584 12.84 7.188 17.48L77.33 102.4zM162.7 47.43c37.47-9.465 55.46-14.01 61.33-15.31c5.906 1.312 137.2 34.44 137.2 34.44L338.7 89.23v13.19l1.043 22.12C304.9 137.3 264.9 144 224 144S143.1 137.3 109.3 124.9V89.23L86.82 66.56L162.7 47.43zM335.8 192c-7.975 0-14.77 5.793-15.9 13.62C313.2 252.1 272.7 288 223.1 288c-48.71 0-89.16-35.87-95.86-82.38C127 197.8 120.3 192 112.3 192C102.5 192 94.78 200.6 96.16 210.2C105.1 272.2 159 320 223.1 320s118.9-47.8 127.8-109.8C353.2 200.6 345.6 192 335.8 192zM319.9 352L224 416l-95.9-64C57.41 352 0 409.3 0 480c0 17.67 14.35 32 32.03 32h383.9C433.6 512 448 497.7 448 480C448 409.3 390.6 352 319.9 352zM32 480c0-49.88 38.24-91 86.95-95.58l87.3 58.2C211.6 446.2 217.8 448 224 448c6.189 0 12.38-1.791 17.75-5.375l87.3-58.2C377.8 389 416 430.1 416 480H32zM352 416h-32c-8.836 0-16 7.164-16 16S311.2 448 320 448h32c8.838 0 16-7.164 16-16S360.8 416 352 416z"/></svg>

<svg xmlns="http://www.w3.org/2000/svg" viewBox="0 0 448 512"><!-- Font Awesome Pro 6.0.0-alpha2 by @fontawesome - https://fontawesome.com License - https://fontawesome.com/license (Commercial License) --><path d="M168.844 94.318L216.844 118.312C219.094 119.438 221.562 120 224 120S228.906 119.438 231.156 118.312L279.156 94.318C287.062 90.35 290.25 80.758 286.312 72.854C282.344 64.949 272.781 61.732 264.844 65.699L224 86.133L183.156 65.699C175.25 61.764 165.656 64.98 161.688 72.854C157.75 80.758 160.938 90.35 168.844 94.318ZM77.332 102.42V124.885C77.332 137.924 85.045 150.102 97.289 154.584C134.266 168.123 177.562 176 224 176S313.734 168.123 350.713 154.584C362.957 150.102 370.668 137.924 370.668 124.885V102.42L392.812 80.119C397.416 75.484 400 69.195 400 62.641C400 51.295 392.336 41.408 381.408 38.658C235.715 1.979 229.207 0 225.475 0C225.023 0 224.611 0.029 224 0.029C223.406 0.029 222.998 0.002 222.557 0.002C218.77 0.002 212.504 1.924 66.592 38.658C55.664 41.408 48 51.295 48 62.641C48 69.195 50.584 75.484 55.188 80.119L77.332 102.42ZM162.672 47.426C200.145 37.961 218.127 33.42 224.004 32.117C229.91 33.43 247.898 37.973 285.324 47.426L361.182 66.559L347.961 79.873L338.668 89.23V102.42L339.711 124.535C304.93 137.27 264.916 144 224 144S143.072 137.27 109.332 124.885V89.23L100.039 79.873L86.82 66.559L162.672 47.426ZM335.719 192C327.744 192 320.998 197.793 319.871 205.617C313.18 252.129 272.727 288 223.984 288C175.271 288 134.82 252.129 128.129 205.617C127.004 197.793 120.256 192 112.283 192H112.281C102.502 192 94.777 200.598 96.16 210.195C105.096 272.199 158.996 320 223.984 320S342.9 272.199 351.84 210.195C353.223 200.6 345.5 192 335.719 192ZM320 352L224 416L128 352C57.309 352 0 409.307 0 480C0 497.674 14.328 512 32 512H416C433.674 512 448 497.674 448 480C448 409.307 390.693 352 320 352ZM32 480C32 430.119 70.242 389 118.947 384.424L206.25 442.625C211.625 446.209 217.812 448 224 448C230.189 448 236.377 446.209 241.75 442.625L329.055 384.424C377.76 389 416 430.119 416 480H32ZM352 416H320C311.164 416 304 423.164 304 432S311.164 448 320 448H352C360.838 448 368 440.836 368 432S360.838 416 352 416Z"/></svg>
